X: 1773
T: the Tullamore Piper   #1
R: hornpipe, reel
%S: s:2 b:16(8+8)
O: Delaney
B: O'Neill's 1850 #1773
Z: Bob Safranek, rjs@gsp.org
M: C|
L: 1/8
K: D
(Tfe) |\
(df)(Ad) f2(Tfe) | d2(ba) ^gaed | ceAc eAce | dgba ^ga=ge ||\
 df  Ad  f2(Tfe) | d2(ba) ^gaed | ceAc eAce | d2f2 d2 |]
A2 |\
B2c2 Td2(cB) | BA^GA F2(ed) | ceAc eAce | dfba ^gafd ||\
B2c2 Td2(cB) | BA^GA F2(ed) | ceAc eAce | d2f2 d2 |]
